!!!COM: Fanny (Mendelssohn) Hensel
!!!CNT: Deutsch
!!!TXO: Deutsch
!!!OTL: "Totenklage"
!!!LYR: Kerner, Justinus
!!!OPR: 
!!!OPS: Op. 
!!!ONM: No. 
!!!ENC: Emily Thomas
!!!YOR: Hensel: 16 Songs Fanny Mendelssohn Hensel
!!!YOR: Alfred, 1995
!!!ODT: 1841/
!!NB: Vocal melody and text encoded.
**kern	**silbe
=0	=0
*clefG2	*
*k[f#]	*
*M4/4	*
*MM[Andante]	*
2r	.
{4ee	{O
8dd#	dass
8ee	du
=1	=1
4.cc	wardst
8b	hin-
8a	-weg-
8g	|
8f#	-ge-
8e	|
=2	=2
4g	-nom-
8f#}	-men,}
{8b	{zu
8b	keh-
4a	|
8g	-ren
=3	=3
8g	nim-
4f#	|
8g	-mer-
8b	-mehr-
8a	|
8g	zu
8f#	|
=4	=4
4e	-ru2ck!
8d#}	|}
8r	.
{4ee	{Von
8ddn	ei-
8ee	-nem
=5	=5
4.cc	mee-
8b	-re
8a	fort-
8g	|
8f#	-ge-
8e	|
=6	=6
4ee	-schwom-
8dd	-men
8cc	ist
4.b	seit-
8b	-dem
=7	=7
4dd	all
8c}	mein,}
8r	.
{4.ee	{all
16dd	mein
16cc	|
=8	=8
4b}	Glu2ck,}
8r	.
{8b	{ist
4gg	seit-
8f#	-dem
8ee	|
=9	=9
4dd	all
8cc	mein,
8b}	|}
{4.a	{all
8b	mein
=10	=10
4g}	Glu2ck!}
8r	.
{8b	{Ver-
4.b	-ge-
8b	-bens
=11	=11
4.ee	blick'
8dd	ich
4cc	nach
4b	dem
=12	=12
4b	fer-
8cc	-nen
8cc	a-
4.cc	-zur-
8cc	-nen
=13	=13
4.ff@	Him-
8ee}	-mel,}
{4dd#	{ru-
4cc#	-fend
=14	=14
4dd#}	dir.}
4r	.
{4ff#	{Ant-
8ff#	-wor-
8ee	-te-
=15	=15
4ee	-te
4dd#	von
4.ff#	all
8ee	den
=16	=16
4ee	Ster
8dd#}	nen}
{8dd#	{doch
4ee	ei-
4ddn	-ner
=17	=17
4cc}	nur:}
8r	.
{8g	{"Er
4ee	ist
8ffn	bei
8b	|
=18	=18
4cc}	mir,"}
4r	.
8r	.
{8g	{ant-
8g	-wor-
8g	-te
=19	=19
4.g	-te
8g	von
4.g	all
8g	den
=20	=20
2g#	Ster-
8g#}	-nen}
{8g#	{doch
8a	ei-
8a	-ner
=21	=21
4b}	nur:}
8r	.
{8b	{"Er
4cc	ist
8r	.
8a	bei
=22	=22
2dd#}	mir,"}
2r	.
=23	=23
2r	.
{4.b	{doch
8a	|
=24	=24
8g	ei-
8gg	|
8ff#	-ner
8ee	|
8dd	nur:
8cc}	|}
{8b	{"Er
8a	|
=25	=25
*M2/4	*
4b	ist
8r	.
8d#	bei
=26	=26
*M4/4	*
4e}	mir!"}
4r	.
2r	.
==	==
*-	*-
